storage/app/icons/phosphoricons/duotone/toolbox-duotone.svg

<svg xmlns="http://www.w3.org/2000/svg" fill="currentColor" viewBox="0 0 256 256"><path d="M232 120v72a8 8 0 0 1-8 8H32a8 8 0 0 1-8-8v-72Z" opacity=".2"/><path d="M224 64h-48v-8a24 24 0 0 0-24-24h-48a24 24 0 0 0-24 24v8H32a16 16 0 0 0-16 16v112a16 16 0 0 0 16 16h192a16 16 0 0 0 16-16V80a16 16 0 0 0-16-16M96 56a8 8 0 0 1 8-8h48a8 8 0 0 1 8 8v8H96ZM32 80h192v32h-32v-8a8 8 0 0 0-16 0v8H80v-8a8 8 0 0 0-16 0v8H32Zm192 112H32v-64h32v8a8 8 0 0 0 16 0v-8h96v8a8 8 0 0 0 16 0v-8h32z"/></svg>

<svg xmlns="http://www.w3.org/2000/svg" viewBox="0 0 256 256" fill="currentColor"><path d="M232,120v72a8,8,0,0,1-8,8H32a8,8,0,0,1-8-8V120Z" opacity="0.2"/><path d="M224,64H176V56a24,24,0,0,0-24-24H104A24,24,0,0,0,80,56v8H32A16,16,0,0,0,16,80V192a16,16,0,0,0,16,16H224a16,16,0,0,0,16-16V80A16,16,0,0,0,224,64ZM96,56a8,8,0,0,1,8-8h48a8,8,0,0,1,8,8v8H96ZM32,80H224v32H192v-8a8,8,0,0,0-16,0v8H80v-8a8,8,0,0,0-16,0v8H32ZM224,192H32V128H64v8a8,8,0,0,0,16,0v-8h96v8a8,8,0,0,0,16,0v-8h32v64Z"/></svg>
